X: 1276
T:Primrose Lass (version)
R:Reel
M:4/4
D:Private tape
S:Michael O'Raghallaigh (concertina)
Z:Bernie Stocks
K:G
B3G A2GE | DEGA BA~A2 | B3A G3B | dBAc BAGA | BG~G2 BEGE | DEGA BA~A2 |
B3A G3B | dB~B2 BAGB || dg~g2 gd~d2 | ed~d2 edBc | dg~g2 gfed |
ea~a2 agef | g3f gd~d2 | ed~d2 edBc | dg~g2 gfed | ea~a2 aged ||
